svg/SJJB-OpenStreetMapIcons/barrier/kissing_gate.svg

<svg xmlns="http://www.w3.org/2000/svg" viewBox="0 0 580 580"><path d="m66.28 1.768c-41.34 0-64.57 21.371-64.57 65.04v450.12c0 40.844 20.895 62.23 62.19 62.23h452.02c41.31 0 62.23-20.315 62.23-62.23v-450.12c0-42.601-20.922-65.04-63.52-65.04-.004 0-448.5-.143-448.35 0z" fill="#111" stroke="#eee" stroke-width="3.408"/><g transform="translate(-6.545 11.806)" fill="none"><path d="m71.15 445.93c0-35.35 88.65-64 198-64" stroke="#7f7f7f" stroke-width="20"/><path stroke="#fff" stroke-linejoin="round" stroke-linecap="round" stroke-width="30" d="m519.15 442.93l-191 65v-322l191-65z"/><g stroke="#7f7f7f" stroke-width="20"><path d="m71.15 348.93c0-35.35 88.65-64 198-64"/><path d="m71.15 252.93c0-35.35 88.65-64 198-64"/></g><g stroke-width="30"><g stroke="#fff" stroke-linecap="round"><path d="m269.15 509.93c-109.35 0-198-28.654-198-64"/><path d="m71.15 121.93v325"/><path d="m268.15 188.93v321"/></g><path stroke="#7f7f7f" d="m268.15 58.931v130"/></g><g stroke="#fff"><g stroke-width="20"><path d="m268.15 395.93c-109.35 0-198-28.654-198-64"/><path d="m270.15 292.93c-109.35 0-198-28.655-198-64"/></g><g stroke-linecap="round"><g stroke-width="30"><path d="m269.15 185.93c-109.35 0-198-28.654-198-64 0-35.35 88.65-64 198-64"/><g stroke-linejoin="round"><path d="m328.15 292.94l191-65"/><path d="m328.15 396.94l191-65"/></g></g><path stroke-linejoin="round" stroke-width="20" d="m329.15 503.93l186-381"/></g></g></g></svg>

<?xml version="1.0" encoding="UTF-8" standalone="no"?>
<!-- Created with Inkscape (http://www.inkscape.org/) -->

<svg
   xmlns:dc="http://purl.org/dc/elements/1.1/"
   xmlns:cc="http://creativecommons.org/ns#"
   xmlns:rdf="http://www.w3.org/1999/02/22-rdf-syntax-ns#"
   xmlns:svg="http://www.w3.org/2000/svg"
   xmlns="http://www.w3.org/2000/svg"
   xmlns:sodipodi="http://sodipodi.sourceforge.net/DTD/sodipodi-0.dtd"
   xmlns:inkscape="http://www.inkscape.org/namespaces/inkscape"
   version="1.0"
   width="580"
   height="580"
   id="svg2"
   sodipodi:version="0.32"
   inkscape:version="0.47 r22583"
   sodipodi:docname="accommodation_alpinehut.svg"
   inkscape:output_extension="org.inkscape.output.svg.inkscape">
  <metadata
     id="metadata2975">
    <rdf:RDF>
      <cc:Work
         rdf:about="">
        <dc:format>image/svg+xml</dc:format>
        <dc:type
           rdf:resource="http://purl.org/dc/dcmitype/StillImage" />
        <cc:license
           rdf:resource="http://web.resource.org/cc/PublicDomain" />
        <dc:language>en</dc:language>
        <dc:title></dc:title>
      </cc:Work>
    </rdf:RDF>
  </metadata>
  <sodipodi:namedview
     inkscape:window-height="947"
     inkscape:window-width="1048"
     inkscape:pageshadow="2"
     inkscape:pageopacity="0.0"
     guidetolerance="10.0"
     gridtolerance="10.0"
     objecttolerance="10.0"
     borderopacity="1.0"
     bordercolor="#666666"
     pagecolor="#ffffff"
     id="base"
     inkscape:zoom="0.46083856"
     inkscape:cx="301.39438"
     inkscape:cy="106.87694"
     inkscape:window-x="1290"
     inkscape:window-y="20"
     inkscape:current-layer="svg2"
     showgrid="false"
     inkscape:window-maximized="0" />
  <defs
     id="defs4">
    <inkscape:perspective
       sodipodi:type="inkscape:persp3d"
       inkscape:vp_x="0 : 290 : 1"
       inkscape:vp_y="0 : 1000 : 0"
       inkscape:vp_z="580 : 290 : 1"
       inkscape:persp3d-origin="290 : 193.33333 : 1"
       id="perspective2441" />
    <inkscape:perspective
       id="perspective3452"
       inkscape:persp3d-origin="30 : 20 : 1"
       inkscape:vp_z="60 : 30 : 1"
       inkscape:vp_y="0 : 1000 : 0"
       inkscape:vp_x="0 : 30 : 1"
       sodipodi:type="inkscape:persp3d" />
    <symbol
       viewBox="244.5 110 489 219.9"
       id="symbol-university">
      <path
         id="path4460"
         d="M79,43l57,119c0,0,21-96,104-96s124,106,124,106l43-133l82-17L0,17L79,43z" />
      <path
         id="path4462"
         d="M94,176l-21,39"
         stroke-width="20"
         stroke="#000000"
         fill="none" />
      <path
         id="path4464"
         d="M300,19c0,10.5-22.6,19-50.5,19S199,29.5,199,19s22.6-19,50.5-19S300,8.5,300,19z" />
      <path
         id="path4466"
         d="M112,216l-16-38L64,88c0,0-9-8-4-35s16-24,16-24"
         stroke-width="20"
         stroke="#000000"
         ill="none" />
    </symbol>
    <inkscape:perspective
       id="perspective4471"
       inkscape:persp3d-origin="372.04724 : 350.78739 : 1"
       inkscape:vp_z="744.09448 : 526.18109 : 1"
       inkscape:vp_y="0 : 1000 : 0"
       inkscape:vp_x="0 : 526.18109 : 1"
       sodipodi:type="inkscape:persp3d" />
    <inkscape:perspective
       id="perspective4668"
       inkscape:persp3d-origin="6 : 4 : 1"
       inkscape:vp_z="12 : 6 : 1"
       inkscape:vp_y="0 : 1000 : 0"
       inkscape:vp_x="0 : 6 : 1"
       sodipodi:type="inkscape:persp3d" />
    <inkscape:perspective
       id="perspective5517"
       inkscape:persp3d-origin="0.5 : 0.33333333 : 1"
       inkscape:vp_z="1 : 0.5 : 1"
       inkscape:vp_y="0 : 1000 : 0"
       inkscape:vp_x="0 : 0.5 : 1"
       sodipodi:type="inkscape:persp3d" />
  </defs>
  <g
     id="g1327">
    <path
       d="M 66.275,1.768 C 24.94,1.768 1.704,23.139 1.704,66.804 L 1.704,516.927 C 1.704,557.771 22.599,579.156 63.896,579.156 L 515.92,579.156 C 557.227,579.156 578.149,558.841 578.149,516.927 L 578.149,66.804 C 578.149,24.203 557.227,1.768 514.628,1.768 C 514.624,1.768 66.133,1.625 66.275,1.768 z"
       style="fill:#111111;stroke:#eeeeee;stroke-width:3.40799999"
       id="path1329" />
  </g>
  <g
     id="layer3"
     inkscape:label="Layout"
     style="display:none;stroke:#757575;stroke-opacity:1"
     transform="matrix(48.14969,0,0,48.14969,-536.27327,-33.306752)">
    <rect
       style="fill:none;stroke:#757575;stroke-width:0.10000000000000001;stroke-miterlimit:4;stroke-dasharray:none;stroke-opacity:1;display:inline"
       id="rect4134"
       width="10"
       height="10"
       x="1"
       y="1" />
    <rect
       style="fill:none;stroke:#757575;stroke-width:0.10000000000000001;stroke-miterlimit:4;stroke-dasharray:none;stroke-opacity:1;display:inline"
       id="rect4136"
       width="8"
       height="8"
       x="2"
       y="2" />
  </g>
  <g
     transform="translate(-6.5446793,11.806088)"
     id="g2325">
    <path
       style="fill:none;stroke:#7f7f7f;stroke-width:20"
       d="m 71.146,445.933 c 0,-35.346 88.647,-64 198,-64"
       id="path5473" />
    <polygon
       style="fill:none;stroke:#ffffff;stroke-width:30;stroke-linecap:round;stroke-linejoin:round"
       points="519.152,442.928 328.149,507.928 328.149,185.931 519.152,120.931 "
       id="polygon5475" />
    <path
       style="fill:none;stroke:#7f7f7f;stroke-width:20"
       d="m 71.146,348.933 c 0,-35.346 88.647,-64.001 198,-64.001"
       id="path5477" />
    <path
       style="fill:none;stroke:#7f7f7f;stroke-width:20"
       d="m 71.146,252.931 c 0,-35.346 88.647,-64 198,-64"
       id="path5479" />
    <path
       style="fill:none;stroke:#ffffff;stroke-width:30;stroke-linecap:round"
       d="m 269.146,509.928 c -109.353,0 -198,-28.654 -198,-64"
       id="path5481" />
    <line
       style="fill:none;stroke:#ffffff;stroke-width:30;stroke-linecap:round"
       x1="71.146004"
       y1="121.931"
       x2="71.146004"
       y2="446.92801"
       id="line5483" />
    <line
       style="fill:none;stroke:#ffffff;stroke-width:30;stroke-linecap:round"
       x1="268.146"
       y1="188.931"
       x2="268.146"
       y2="509.92801"
       id="line5485" />
    <line
       style="fill:none;stroke:#7f7f7f;stroke-width:30"
       x1="268.146"
       y1="58.931"
       x2="268.146"
       y2="188.931"
       id="line5487" />
    <path
       style="fill:none;stroke:#ffffff;stroke-width:20"
       d="m 268.146,395.933 c -109.353,0 -198,-28.654 -198,-64"
       id="path5489" />
    <path
       style="fill:none;stroke:#ffffff;stroke-width:20"
       d="m 270.146,292.932 c -109.353,0 -198,-28.655 -198,-64"
       id="path5491" />
    <path
       style="fill:none;stroke:#ffffff;stroke-width:30;stroke-linecap:round"
       d="m 269.146,185.931 c -109.353,0 -198,-28.654 -198,-64 0,-35.346 88.647,-64 198,-64"
       id="path5493" />
    <line
       style="fill:none;stroke:#ffffff;stroke-width:30;stroke-linecap:round;stroke-linejoin:round"
       x1="328.14899"
       y1="292.935"
       x2="519.15198"
       y2="227.93401"
       id="line5495" />
    <line
       style="fill:none;stroke:#ffffff;stroke-width:30;stroke-linecap:round;stroke-linejoin:round"
       x1="328.14899"
       y1="396.936"
       x2="519.15198"
       y2="331.936"
       id="line5497" />
    <line
       style="fill:none;stroke:#ffffff;stroke-width:20;stroke-linecap:round;stroke-linejoin:round"
       x1="329.146"
       y1="503.92801"
       x2="515.146"
       y2="122.931"
       id="line5499" />
  </g>
</svg>
